X:1
T:Ballade No. 1 in G Minor
T:Ballade No. 1
T:Op. 23
T:F. F. Chopin
C:F. F. Chopin
%%score { ( 1 3 4 5 ) | ( 2 6 7 ) }
L:1/8
Q:1/4=60
M:4/4
K:Bb
V:1 treble nm="Piano" snm="Pno."
V:3 treble 
V:4 treble 
V:5 treble 
V:2 bass 
V:6 bass 
V:7 bass 
V:1
!f!"^Largo."[I:staff +1] (C,4-"_pesante" C,E,_A,B, |[Q:1/4=80][I:staff -1] C_A,EB c_A[Q:1/4=75]eb | %2
[Q:3/16=80]!>(! c'g[Q:1/4=55]b_a !fermata!g2!>)! ^f) z | !fermata!z (^f[Q:1/4=70]gf ^ef(3ag_e | %4
 e>d(3=fed d2) z2 | z4[Q:3/16=80]!>(!!<(! (!fermata!c3!>)! G | B8-)!<)! || %7
[M:6/4][Q:1/4=120]"^Moderato."!p! B6 z x D3 x | G6 (d6 | c6) z (C4 x | G6) (=E6 | ^F6) z (=C4 x | %12
 G6) (g6 | f6) E6 | (^c6 d6 | =c6) z x D3 x | G6 (d6 | c6) z (C4 x | G6) (=E6 | ^F6) z =C4 x | %20
 G6 (g6 |[Q:1/4=132] g6 d6 | c6 G6) |[Q:1/4=144] (g6 d6 | c6 G6 | F6) (d6- | %26
!p! d2!<(!{/d} c2 =B2 c2 d2 e2!<)! |!f! e6 d6) | z2{/B} (A2!<(! ^G2 A2 B2 c2!<)! | c6!mp! B6 | %30
 A6)"^riten."!<(! A4- A!<)!A |!f! A6- A4 !>!A2- | %32
 (A/B/A/^G/ A/=g/=e/f/ f/g'/f'/=e'/ (6:2:6_e'c'abd'c'(6:2:6bgfd_e=e(6:2:6f^fag=f_e) | %33
 ^c z !>!d4- (d2 =c2 G2 | B6 ^F6 | G2)!p![Q:1/2=80] ([Bb]dfe- e2) ([Aa]^ced- | %36
 d2) ([Bb]dfe- e2) ([_A_a]^ced- | d2) ([Gg]=Bd=c- c2) ([Cc]^G_BA- | %38
 A2) ([Ee]=Bdc- c2)!<(! (G2 [^FA]2!<)! | [_B,G_B]2)!f!"^agitato" !>![Bb]4 z2 !>![Aa]4 | %40
[Q:1/4=180] z2 !>![Bb]4 z2 !>![_A_a]4 | z2 !>![Gg]4[Q:1/4=200] z2 !>![Cc]4 | %42
 x2 !>!e=Bdc[Q:1/4=220] z2 !>!^F^CED | %43
[Q:1/4=240] [_B,G]2 (!>!=CB,A,[I:staff +1]G,[I:staff -1] [_B,G]2) (!>!=CB,A,[I:staff +1]G,) | %44
"^semrpe più mosso"[Q:1/4=260][I:staff -1] (FCE^F,CE ^Fc=fedc | %45
 [Bg]2) (!>![Gc]BAG [Bg]2) ([Gc]BAG) | (fc"^l.h."e^Fce ^fc'=f'e'd'c') | %47
 [bg']2 z!f!!8va(! ([g'e'']b'd' [^f'b']a'd'[^fb]ad | [gc']bd'[g'c'']b'd' [^f'b']a'd'[^fb]ad | %49
 [gc']bd'[g'c'']b'd' [^f'b']a'd'[^fb]ad!8va)! | [Gc]Bd[gc']bd [^fb]ad[^FB]AD | %51
 [Gc]Bd[gc']bd [da]gB[Be]dG | [G=c]BD[DA]GB, [B,E]D[I:staff +1]G,[G,=C]B,D,) | %53
 ([G,C]B,D,[G,D]CE, [G,C]B,D,[G,D]CE, | [G,C]B,D,[G,D]CE, [G,C]B,D,[G,D]CE, | %55
 G,!<(![I:staff -1]DB,DGB!<)! dgbd'!8va(!g'd'' | b'!>(!d''g'd'!8va)!bg dBG!>)!D[I:staff +1]B,D,) | %57
 (G,!>(![I:staff -1]DB,DGd!>)! BdGD[I:staff +1]B,D,) | %58
 (^F,!>(![I:staff -1]DB,D^Fd!>)! BdFD[I:staff +1]B,D,) | %59
 (G,[I:staff -1]DB,DGB!f! dgbd'!8va(!g'd'' | b'd''g'd'!8va)!bg dBGD[I:staff +1]B,D,) | %61
 (_G,!>(![I:staff -1]DB,D_Gd!>)! BdBD[I:staff +1]B,D,) | %62
[Q:1/4=200] (F,"^calando"!>(![I:staff -1]DB,DFd!>)! BdFD[I:staff +1]B,D,) | %63
"^smorz."[Q:1/4=180] (F,[I:staff -1]C[I:staff +1]A,[I:staff -1]CFA cfac'!8va(!f'a' | %64
[Q:1/2=80] f''2)!8va)! z2 z2 z6 | z12 | z6 z2 z2"^sotto voce"[Q:1/4=160]"^Meno mosso." !>![CF]2- | %67
!pp! ([CF]6 G4 G2 | E6- E2) (e3 d | [Gc]6 d4 d2 | B6) (b4 b2 | !>!b4 _a2) (a2 g2 ^f2 | %72
 ^f4 g4) (_a3 e | g4 =f4) (g3 d | f2 e2 d2 (3cdc =Bcde | ([CF]6) G4 G2 | E6- E2) (e3 d | %77
 [Gc]6 d4 d2 | B6) (!>!b4 b2 | b6 c4) (d2 | (3_efe d2 e2 g2) (!>!g2- (3gfe | %81
 e6) z2!pp! (G_A(3Bdc) | B6- B2 (G_A(3Bdc) | B6- B2 (G_A(3Bdc) | %84
 B2- (3(B_DE (3GcB) _A2- (A!>!_CEF | G4) z2 z2 (G_A(3(Bdc) | B2 !>!b6) (3z (G_A (3Bdc) | %87
 (B2 !>!b6) (3z (F_A (3Bdc) | B2- (3(B_DE (3GcB _A2-) (A_CEF | G6-) G (GBgfe) | d6- (dBdbde | %91
 =e2 f4-) (fd[Q:1/4=160]f[Q:1/4=157]"^.5"d'[Q:1/4=155]c'[Q:1/4=152]"^.5"b) | %92
[Q:1/4=150] (^g[Q:1/4=147]"^.5"a[Q:1/4=145]f'[Q:1/4=142]"^.5"=e'[Q:1/4=140]d'[Q:1/4=137]"^.5"a"^m.d."[Q:1/4=135] d[Q:1/4=132]"^.5"A[Q:1/4=130]F[Q:1/4=127]"^.5"D[Q:1/4=125]=E[Q:1/4=122]"^.5"{/G}F | %93
[Q:1/4=120]"^a tempo."[I:staff +1] =E,6)[I:staff -1] z (D=E^Gc=B | A6) (=e6 | d6) z (D=E^Gc=B | %96
 A6) ^F6 | ^G6 z (D=EGc=B | A6) =e6 | ^f6 z!pp! C=E^G=BA | A6 (^f6 | %101
[Q:1/4=120]!>(!"_cresc." ^g6[Q:1/4=121][Q:1/4=123]!>)![Q:1/4=125] ^f4)[Q:1/4=126][Q:1/4=128]"^.3" z[Q:1/4=129]"^.2" (g | %102
[Q:1/4=130]!>(! ^g6[Q:1/4=131][Q:1/4=133]!>)![Q:1/4=135] ^f4)[Q:1/4=136][Q:1/4=138]"^.3" z[Q:1/4=139]"^.2" (g | %103
[Q:1/4=140] ^g6[Q:1/4=141][Q:1/4=143][Q:1/4=145] ^f4)[Q:1/4=146][Q:1/4=148]"^.3" z[Q:1/4=149]"^.2" g | %104
[Q:1/4=150] a6[Q:1/4=151][Q:1/4=153][Q:1/4=155] ^g4[Q:1/4=156][Q:1/4=158]"^.3" a2 | %105
!ff![Q:1/4=160] ([=Bd=e^g=b]6 [deg^c']4 [degc']2 | [A^ca]6) ([a^c'a']4 [^gc'^g']2 | %107
 [^f^c'^f']6 [=b^d'^g']4 [ad'g']2 | [=e^g=e']6) [ee']4 [ee']2 | a12 | %110
 ([dd']4 [^c^c']2) (3([cc'][dd'][cc'][^B^b][cc'][=e=e'][dd']) | %111
 ([^c^c']2 [=B=b]3 [^A^a]) (4:3:4([Bb]2 [^B^b]2 [cc']2 [^G^g]2 | %112
 =b2 a3 ^g({/^fg)} f2!<(! .^e.f.g.a!<)! | [=D=E^G=B]6 [EG^c=e]4 [DEGce]2 | %114
 [A,^CA]2) z2 ([A^ca]2 [a^c'a']4 [^gc'^g']2 | [^f^c'^f']6 [=b^d'^g']4 [ad'g']2 | %116
 [=e^g=e']4) z2!8va(! [e'=e'']4- [e'e'']>[e'e''] | %117
 [=e'=e'']2!8va)! z2 z2[Q:1/4=160] !>![^F^f]6-[Q:1/4=161]"^.8"[Q:1/4=163]"^.6" | %118
[Q:1/4=165]"^.3" [Ff]2[Q:1/4=167]"^.1" P[^F^f]2[Q:1/4=168]"^.9"!<(! ([^E^e][Q:1/4=169]"^.8"[Ff][Q:1/4=170]"^.7" [^G^g][Q:1/4=171]"^.6"[^A^a][Q:1/4=172]"^.4"[=B=b][Q:1/4=173]"^.3"[^c^c'][Q:1/4=174]"^.2"[dd'][Q:1/4=175]"^.1"[=e=e']!<)! | %119
[Q:1/4=176] [^f^f']2)[Q:1/4=177]"^.8" z2[Q:1/4=179]"^.6" z2[Q:1/4=181]"^.3" !>![^G^g]4[Q:1/4=184]"^.9" [Gg]2[Q:1/4=183]"^.1" | %120
[Q:1/4=186]"^.7" ^G4[Q:1/4=187][Q:1/4=188][Q:1/4=189][Q:1/4=190]"^.2" x8[Q:1/4=191][Q:1/4=192][Q:1/4=192][Q:1/4=193][Q:1/4=194][Q:1/4=195][Q:1/4=196] | %121
[Q:1/4=197]"^.3" .[^g^g']2[Q:1/4=199]"^.1" z2[Q:1/4=200]"^.9" z2[Q:1/4=202]"^.7" ([^Gg]4[Q:1/4=206]"^.2" [Gg]2[Q:1/4=204]"^.4" | %122
"^"[Q:1/4=208] (P[^G^g]2)[Q:1/4=209]"^.8"!<(! [^^F^^f][Q:1/4=210]"^.7"[Gg][Q:1/4=211]"^.6"[^A^a][Q:1/4=212]"^.4"[=B=b][Q:1/4=213]"^.3" [^c^c'][Q:1/4=214]"^.2"[^d^d'][Q:1/4=215]"^.1"[^e^e'][Q:1/4=216][f^^f'][Q:1/4=216]"^.9"[g^g'][Q:1/4=217]"^.8"[^a^a']!<)! | %123
!fff![Q:1/4=218]"^.7" [=b=b']2)[Q:1/4=220]"^.4" ([^g'b'][Q:1/4=221]"^.3"^e'[Q:1/4=222]"^.2"^d'[Q:1/4=223]"^.1"b[Q:1/4=224] [^gb][Q:1/4=224]"^.9"^e[Q:1/4=225]"^.8"^d[Q:1/4=226]"^.7"=B[Q:1/4=227]"^.6"[^GB][Q:1/4=228]"^.4"^E) | %124
[K:bass][Q:1/4=229]"^.3" (^D[Q:1/4=230]"^.2"=B,[Q:1/4=231]"^.1"[^G,B,][Q:1/4=232]^E,[Q:1/4=232]"^.9"^D,[Q:1/4=233]"^.8"=B,,[Q:1/4=234]"^.7" [G,B,][Q:1/4=235]"^.6"E,[Q:1/4=236]"^.4"D,[Q:1/4=237]"^.3"B,,[Q:1/4=238]"^.2"[_A,_C][Q:1/4=239]"^.1"=F,) | %125
[Q:1/4=240] (_B,[Q:1/4=240]"^.4"_A,[Q:1/4=240]"^.8"_C[Q:1/4=241]"^.2"F,[Q:1/4=241]"^.7"B,[Q:1/4=242]"^.1"A,[Q:1/4=242]"^.5" C[Q:1/4=242]"^.9"F,[Q:1/4=243]"^.3"B,[Q:1/4=243]"^.8"A,[Q:1/4=244]"^.2"C[Q:1/4=244]"^.6"F, | %126
[Q:1/4=245]!<(! B,[Q:1/4=245]"^.4"_A,[Q:1/4=245]"^.8"_C[Q:1/4=246]"^.3"F,[Q:1/4=246]"^.7"B,[Q:1/4=247]"^.1"A,[Q:1/4=247]"^.5" C[Q:1/4=247]"^.9"F,[Q:1/4=248]"^.3"B,[Q:1/4=248]"^.7"A,[Q:1/4=249]"^.2"C[Q:1/4=249]"^.6"F, | %127
[Q:1/4=250] B,[Q:1/4=250]"^.4"_A,[Q:1/4=250]"^.8"_C[Q:1/4=251]"^.3"F,[Q:1/4=251]"^.7"B,[Q:1/4=252]"^.1"A,[Q:1/4=252]"^.5" C[Q:1/4=252]"^.9"F,[Q:1/4=253]"^.3"B,[Q:1/4=253]"^.8"A,[Q:1/4=254]"^.2"C[Q:1/4=254]"^.6"F,!<)! | %128
[Q:1/4=255] B,[Q:1/4=255]"^.4"_A,[Q:1/4=255]"^.8"_C[Q:1/4=256]"^.3"F,[Q:1/4=256]"^.7"B,[Q:1/4=257]"^.1"A,[Q:1/4=257]"^.5" C[Q:1/4=257]"^.9"F,[Q:1/4=258]"^.3"B,[Q:1/4=258]"^.8"A,[Q:1/4=259]"^.2"C[Q:1/4=259]"^.6"F, | %129
[K:treble][Q:1/4=260] B,2)[Q:1/4=260]"^.8" (B,[Q:1/4=261]"^.3"D[Q:1/4=261]"^.7"_C[Q:1/4=262]"^.1"D[Q:1/4=262]"^.5" ^C[Q:1/4=262]"^.9"F[Q:1/4=263]"^.3"D[Q:1/4=263]"^.8"_A[Q:1/4=264]"^.2"=E[Q:1/4=264]"^.6"A | %130
[Q:1/4=265] F[Q:1/4=265]"^.4"_c[Q:1/4=265]"^.8"G[Q:1/4=266]"^.3"c[Q:1/4=266]"^.7"_A[Q:1/4=267]"^.1"d[Q:1/4=267]"^.5" B[Q:1/4=267]"^.9"d[Q:1/4=268]"^.3"_c[Q:1/4=268]"^.8"d[Q:1/4=269]"^.2"^c[Q:1/4=269]"^.6"f | %131
[Q:1/4=270] d[Q:1/4=270]"^.4"_a[Q:1/4=270]"^.8"=e[Q:1/4=271]"^.3"a[Q:1/4=271]"^.7"f[Q:1/4=272]"^.1"_c'[Q:1/4=272]"^.5" g[Q:1/4=272]"^.9"c'[Q:1/4=273]"^.3"a[Q:1/4=273]"^.8"d'[Q:1/4=274]"^.2"b[Q:1/4=274]"^.6"d' | %132
[Q:1/4=275]!8va(! _c'[Q:1/4=275]"^.4"d'[Q:1/4=275]"^.8"^c'[Q:1/4=276]"^.3"f'[Q:1/4=276]"^.7"d'[Q:1/4=277]"^.1"_a'[Q:1/4=277]"^.5" =e'[Q:1/4=277]"^.9"a'[Q:1/4=278]"^.3"f'[Q:1/4=278]"^.8"_c''[Q:1/4=279]"^.2"g'[Q:1/4=279]"^.6"c'' | %133
[Q:1/4=280] b'[Q:1/4=280]"^.4"_a'[Q:1/4=280]"^.8"_c''[Q:1/4=281]"^.3"f'[Q:1/4=281]"^.7"b'[Q:1/4=282]"^.1"a'[Q:1/4=282]"^.5" =c''[Q:1/4=282]"^.9"f'[Q:1/4=283]"^.3"b'[Q:1/4=283]"^.8"a'[Q:1/4=284]"^.2"^c''[Q:1/4=284]"^.6"f' | %134
[Q:1/4=285] b'[Q:1/4=285]"^.4"_a'[Q:1/4=285]"^.8"d''[Q:1/4=286]"^.3"f'[Q:1/4=286]"^.7"b'[Q:1/4=287]"^.1"a'[Q:1/4=287]"^.5" e''[Q:1/4=287]"^.9"f'[Q:1/4=288]"^.3"b'[Q:1/4=288]"^.8"a'[Q:1/4=289]"^.2"=e''[Q:1/4=289]"^.6"f' | %135
[Q:1/4=290] f''[Q:1/4=290]"^.4"d''[Q:1/4=290]"^.8"^c''[Q:1/4=291]"^.3"=e''[Q:1/4=291]"^.7"_e''[Q:1/4=292]"^.1"=c''[Q:1/4=292]"^.5" =b'[Q:1/4=292]"^.9"d''[Q:1/4=293]"^.3"^c''[Q:1/4=293]"^.8"_b'[Q:1/4=294]"^.2"a'[Q:1/4=294]"^.6"=c'' | %136
[Q:1/4=295] =b'[Q:1/4=295]"^.4"_a'[Q:1/4=295]"^.8"g'[Q:1/4=296]"^.3"_b'[Q:1/4=296]"^.7"a'[Q:1/4=297]"^.1"f'!8va)![Q:1/4=297]"^.5" d'[Q:1/4=297]"^.9"_b[Q:1/4=298]"^.3"a[Q:1/4=298]"^.8"b[Q:1/4=299]"^.2"_a[Q:1/4=299]"^.6"b | %137
[Q:1/4=300] ^fgg'd'e'=b c'g_b_ag=f) | (^fgg'd'e'=b c'g_b_ag=f) | ^fgg'd'e'=b c'g_b_ag=f | %140
 e2 x d2 x c2 x B2 x | (^fgg'd'e'=b c'g_b_ag=f) | (^fgg'd'e'=b c'g_b_ag=f) | %143
 (^fgg'd'e'=b c'g_b_ag=f | _fed_dc_c B=A=cBA_A) |!<(! (G_A=ABcB _AB=Bc_dc!<)! | %146
!<(! =A_B=Bc=dc _B=c^cded!<)! |!<(! =Bc^cded =c^cde=ef!<)! |!>(! gf=e_ed_d c=B_B=AB_A!>)! | %149
 G2) B,BD_c B,B"_cresc."EG=E_d | CcFA=E_d CcFA^F_e | DdG=B^Fe DdGB^Gf | x2 A2 ^A2 x2 =B2 ^B2 | %153
!ff! [^c^fa^c']2!<(! (^Bc^d^e f^ga=bc'^d'!<)! |!>(! ^e'^f'!>)!^g'a'f'^c' a^f^cA^F^C) | %155
!<(! (A,^F_EAA^f eaa^f'e'a'!<)! |!>(! ^f'a'e'a^fa!>)! eA^FAEA,) | %157
 [B,EGB]2"^leggiero" (A,!p!!<(!B,CD E=EGFGF | cBABcd e=egfgf | c'babc'd' e'=e'g'f'g'f'!<)! | %160
 .b'2) (=abc'd' e'=e'g'f'g'f' | %161
 .b'2) z2 z2!ff![Q:1/4=300]!8va(!{/f'} (f''[Q:1/4=298]"^.6"!>(!=e''[Q:1/4=297]"^.1"_e''[Q:1/4=295]"^.7"d''[Q:1/4=294]"^.3"c''[Q:1/4=292]"^.9"b'!>)! | %162
[Q:1/4=291]"^.4" a'[Q:1/4=290]g'[Q:1/4=288]"^.6"f'[Q:1/4=287]"^.1"=e'[Q:1/4=285]"^.7"_e'[Q:1/4=284]"^.3"d'!8va)![Q:1/4=282]"^.9" c'[Q:1/4=281]"^.4"b[Q:1/4=280]a[Q:1/4=278]"^.6"g[Q:1/4=277]"^.1"f[Q:1/4=275]"^.7"=e | %163
[Q:1/4=274]"^.3" _e[Q:1/4=272]"^.9"_d[Q:1/4=271]"^.4"_c[Q:1/4=270]B[Q:1/4=268]"^.6"_A[Q:1/4=267]"^.1"_G[Q:1/4=265]"^.7" F[Q:1/4=264]"^.3"E[Q:1/4=262]"^.9"_D[Q:1/4=261]"^.4"_C[Q:1/4=260]B,[Q:1/4=258]"^.6"[I:staff +1]A, | %164
[Q:1/4=257]"^.1" _G,[Q:1/4=255]"^.7"F,[Q:1/4=254]"^.3"E,[Q:1/4=252]"^.9"_D,[Q:1/4=251]"^.4"_C,[Q:1/4=250]B,,[Q:1/4=248]"^.6" _A,,[Q:1/4=247]"^.1"_G,,[Q:1/4=245]"^.7"F,,[Q:1/4=244]"^.3"E,,[Q:1/4=242]"^.9"_D,,[Q:1/4=241]"^.4"_C,,) | %165
!ff![Q:1/4=240][I:staff -1] z6 (!>![B,DG]4 [_A,DG]2 | [G,E]2) z2 (!>![EGe]2- [EGe]4 [EBd]2 | %167
 [EBc]6 [FAd]4 [EAd]2) | [DB]2 z2 z2 ([Bb]4 [=B=b]2 | %169
 (5:3:5c'2 _d'2 c'2 =b2 c'2){/[_a-c']} [a_a']2 z2 z c' | %170
 (5:3:5b2 c'2 b2 =a2 b2{/[g-b]} [gg']2 z2 z b | %171
 (5:3:5(_a2 b2!<(! a2 g2 a2)!<)!{/[f-a]} .[ff']2 z2 ([fa]2 | %172
 [fg]2{/_b} !>![f_a]3!<(! [fg]) (.[eg]2 .[ea]2 .[e=a]2!<)! | [_ABfb]6 [ABdgb]4 [ABdgb]2 | %174
 [Ge]2) z2 z2 ([ege']4 [ebd']2 | [ebc']6 [fad']4 [ead']2 | [db]2) z2 z2 (!>![bb']4 z [bb'] | %177
 [bb']4) z2 (!>!c4 d2 | T_e2 d2 e2 [dg]2 !>!g2- (3gfe | e4) z2 z2"^con forza" (G_A (3Bdc | %180
"^ten." B4) z2 z2 (3z (G_A (3Bdc | B6) z2 (3z (G_A (3Bdc | B2) (3z _DE (3GcB _A3 (_CEF | %183
 G2) z2 z2 z2 (3z (G_A (3Bdc | .B) .b .b'2 z2 z2 (3z (G_A (3Bdc | %185
 .B) .b .b'2 z2 z2 (3z (G_A (3Bdc | B2) (3z _DE (3GcB _A3 (_CEF | G6-)!<(! (GGBgfe) | %188
 B6- (BGBgfe)!<)! | d6- (dBdbag | %190
"_riten."[Q:1/4=300] d6-)[Q:1/4=270] (d[Q:1/4=265]B[Q:1/4=260]d[Q:1/4=255]b[Q:1/4=250]a[Q:1/4=245]g[Q:1/4=295][Q:1/4=290][Q:1/4=285][Q:1/4=280][Q:1/4=275] | %191
[Q:1/4=240] d[Q:1/4=235]B[Q:1/4=230]d[Q:1/4=225]b[Q:1/4=220]"_dim. rit."!>(!a[Q:1/4=215]g[Q:1/4=210] d[Q:1/4=205]B[Q:1/4=200]d[Q:1/4=195]b[Q:1/4=190]a[Q:1/4=185]g | %192
[Q:1/4=180] d[Q:1/4=175]a[Q:1/4=170]c'[Q:1/4=165]b[Q:1/4=160]g[Q:1/4=155]e[Q:1/4=150] B[Q:1/4=145]G[Q:1/4=140]C[Q:1/4=135]D[Q:1/4=130]F[Q:1/4=125]E!>)! | %193
[Q:1/4=120]"^Meno mosso."[I:staff +1] D,6)[I:staff -1] z (CD^FBA | G6) (d6 | c6) z (CD^FBA | %196
 G6) (!>!=E6 | ^F6) z (CDFBA | G6) (d6 | =e6) z (B,!<(!^C=EAG)!<)! | G6!f! (=e6 | ^f6 =e4) z (f | %202
 ^f6 =e4) z (f | ^f6 =e4) z (f | a6 g4) (a2 | %205
 [Bdb]2) z!f!!8va(! (.[d'b'].[_e'=c''].[d'b'] .[c'a'].[bg'].[a^f'].[bg'].[a=f']z/.[ge']/!8va)! | %206
 .[ge'].[^fd'].[ec'].[db].[ca].[Bg]"^poco riten." (3(.[Af].[ce].[cd]) (5:4:5(.[=Bd]/.[_Bd]/.[Ad]/.[^Gd]/.[Ad]/ .[Bd]/.[Ad]/.[cd]/.[Bd]/) || %207
[M:2/2][Q:1/4=300]"^Presto con fuoco." [=Gd]) z!8va(! (!>![d'g'b']a) z ([bd'g']!>![bd'g']^f)!8va)! | %208
 z ([gbd']!>![gbd']^c) z ([dgb]!>![dgb]d) | z ([egc']!>![egc']d) (^c=c!>![egc']d) | %210
 (^c=c!>![e^fc']d) (^c=c!>![egc']d) | [Bdgb]2!8va(! (!>![d'g'b']a) z ([bd'g']!>![bd'g']^f)!8va)! | %212
 z ([gbd']!>![gbd']^c) z ([dgb]!>![dgb]d) | z ([egc']!>![egc']d) (^c=c!>![egc']d) | %214
 (^c=c!>![e^fc']d) (^c=c!>![egc']d) | [Bdgb]2 _a2 x2 G2 | ^F2 x2 g2 x2 | _A2 _a2 x2 G2 | %218
 ^F2 x2 g2 x2 | =F2 x2 x4 | D2 x2 x4 | C2 !>!c2 c2 B2 | B2 A2 G2 ^F2 | .[GBg]2 _a2 x2 G2 | %224
 ^F2 x2 g2 x2 | !>!_A2 _a2 x2 G2 | ^F2 x2 g2 x2 | =F[_A=f]f[_a=f'] f[Ge]E[Ge] | D2 x2 x4 | %229
 =C2 c2"_cresc." =B2 c2 | c2 e2 d2 e2 | e2 _g2 f2 g2 |!8va(! ^f2 a2 b2 c'2 | c'2 b2 b2 a2 | %234
 a2 g2 g2 d2 | z (b[d'b']b !>![_d'b']b!>![c'a']a | !>![c'a']a!>![bg']g !>![bg']g!>![^fd']d) | %237
 z (d'[g'b'd'']d')!8va)! z2 (!>![gbd']d) | z2 (!>![GBd]D) z2[I:staff +1] (!>![G,B,D]D,) | %239
[I:staff -1] z2[I:staff +1] (!>![G,B,=E]D,)[I:staff -1] z2[I:staff +1] (!>![G,B,E]D,) | %240
[I:staff -1] z2[I:staff +1] (!>![G,B,=E]D,)[I:staff -1] z2[I:staff +1] (!>![G,B,E]D,) | %241
[I:staff -1] z4 (6:4:6(!>!G,^G,A,B,=B,C | (6:4:6(^CDE=EF^F)!<(! (6:4:6(G^GAB=B=c)!<)! | %243
 (6:4:6(^cde=ef^f)"_cresc." (6:4:6(g^gab=bc') | %244
!8va(! (6:4:6(^c'd'e'=e'f'^f') (6:4:6(g'^g'a'b'=b'^c'') | %245
 (29:16:29_e''d''f''e''d''c''=b'd''c''_b'a'g'^f'a'g'f'e'd'e'd'=f'e'd'c'!8va)!=bd'c'_ba | %246
 (39:32:39g/^f/a/g/f/e/d/e/d/=f/e/d/c/=B/d/c/_B/A/G/^F/E/D/[I:staff +1]C/B,/A,/G,/^F,/E,/D,/C,/B,,/A,,/G,,/^F,,/E,,/D,,/C,,/B,,,/A,,,/) | %247
[I:staff -1] z8 | %248
 (21:16:21z/!<)!!<(![I:staff +1] (A,,/B,,/C,/D,/=E,/^F,/G,/A,/B,/C/[I:staff -1]D/=E/^F/G/A/B/c/d/=e/^f/ | %249
 !wedge!g) z z2!p!"_riten."[I:staff +1] ([D,G,B,]3 [D,G,B,] | %250
 [D,G,B,]4)!f!"_accel."[I:staff -1] (6:4:6z[I:staff +1] (D,G,A,CB, | %251
 .B,)[I:staff -1] z z2[I:staff +1] !>!B,,4- | %252
 (28:16:28B,,/(C,/D,/=E,/^F,/G,/A,/ B,/C/[I:staff -1]D/=E/^F/G/A/B/c/d/=e/^f/g/!8va(!a/b/c'/d'/=e'/^f'/g'/a'/ | %253
 !wedge!b')!8va)! z z2!p!"_riten."[I:staff +1] ([D,G,B,D]3 [D,G,B,D] | %254
 [D,G,B,D]4)[I:staff -1] (6:4:6z!ff! (DGBed | %255
 .d) z z2!8va(!{/=e''-} (3[=e'e'']2{/_e''-} [_e'e'']2{/d''-} [d'd'']2 | %256
{/^c''-} (3[^c'c'']2{/=c''-} [=c'c'']2"_accel."{/=b'-} [=bb']2 (3[_b_b']2 [aa']2 [_a_a']2!8va)! | %257
 (3[gg']2 [^f^f']2 [=f=f']2 (3[=e=e']2 [_e_e']2 [dd']2 | %258
 (3[^c^c']2 [=c=c']2 [=B=b]2 (3[_B_b]2 [Aa]2 [_A_a]2 | [Gg]4 z4 | [bd'g'b']8 | %261
[I:staff +1] !fermata!G,8 |] %262
V:2
 (C,,4- C,,E,,_A,,B,, | C,_A,,E,B, C_A,[I:staff -1]EB | cGB_A G2 ^F)[I:staff +1] z | %3
 !fermata!z!p![I:staff -1] (^FGF ^EF(3AG_E | E>D(3FED D2)[I:staff +1] z2 | z4 ([E,G,C]4 | %6
 !arpeggio![D,G,E]8) ||[M:6/4] z6!ped! .D,,2 z2 z2!ped-up! | z2 (.G,,2 .G,,2) z2 (.B,2 .B,2) | %9
 z2 (.[A,C]2 .[A,C]2) z2 (.D,,2 .D,,2) | z2 (.G,,2 .G,,2) z2 (.A,,2 .A,,2) | %11
 z2 (.D,,2 .D,,2) z2 (.D,2 .D,2) | z2 (.G,,2 .G,,2) z2 (.=E2 .E2) | z2 (.F2 .F2) z2 (.F,,2 .F,,2) | %14
 z2 (.B,,2 .B,,2) z2 (.B,2 .B,2) | z2 (.A,2 .A,2) z2 (.D,,2 .D,,2) | %16
 z2 (.G,,2 .G,,2) z2 (.B,2 .B,2) | z2 (.[A,C]2 .[A,C]2) z2 (.D,,2 .D,,2) | %18
 z2 (.G,,2 .G,,2) z2 (.A,,2 .A,,2) | z2 (.D,,2 .D,,2) z2 (.D,2 .D,2) | %20
 z2 (.G,2 .G,2) z2 (.G,,2 .G,,2) | z2 C,4 z2 D,4 | z2 E,4 z2 D,4 | %23
 (!>!=B,,C,D,C, G,2) (!>!^C,D,E,D, G,2) | (!>!D,E,F,E,!<(! G,2){^D,=E,} TE,6{D,E,}!<)! | %25
!f! F,6- (F,2 [=E,,=E,]2 [F,,F,]2 | [^F,,^F,]6-) [F,,F,]2 [^E,,^E,]2 [F,,F,]2 | [G,,G,]12 | %28
 [D,,D,]12 | [E,,E,]12 | (([C,,C,]6 [D,,D,]6)) | %31
!ped! [^C,,^C,]2 (.[=E,A,=E]2 .[E,A,E]2 .[E,A,E]2 .[E,A,E]2 .[E,A,E]2)!ped-up! | %32
!ped! ([=C,,=C,]2 [F,A,_EF]2 [F,A,EF]2 [F,A,EF]2 [F,A,EF]2 [F,A,EF]2)!ped-up! | %33
!ped! [B,,,B,,]2 [D,F,B,]2 [F,B,D]2!ped-up!!ped! E,,2 [E,G,=C]2 [G,CE]2!ped-up! | %34
!ped! (D,,2 [G,B,E]2 [B,D]4!ped-up! [B,^C]2 [A,=C]2) | %35
!ped! .G,,2 (=F2 E2)!ped-up!!ped! .^F,,2 (E2 D2)!ped-up! | %36
!ped! .G,,2 (=F2 E2)!ped-up!!ped! .=F,,2 (E2 D2)!ped-up! | %37
!ped! .E,,2 (D2 C2)!ped-up!!ped! .C,,2 (_B,2 A,2)!ped-up! | %38
!ped! .D,,2 (G,2 ^F,2)!ped-up!!ped! .D,,2 (A,2 D,2)!ped-up! | %39
!ped! .[G,,G,]2 (=F2 [B,E]2)!ped-up!!ped! .[^F,,^F,]2 (E2 [A,D]2)!ped-up! | %40
!ped! .[G,,G,]2 (=F2 [B,E]2)!ped-up!!ped! .[=F,,=F,]2 (E2 [_A,=B,D]2)!ped-up! | %41
!ped! .[E,,E,]2 (D2 [G,C]2)!ped-up!!ped! .[C,,C,]2 (B,2 [E,=A,]2)!ped-up! | %42
!ped! .D,,2 [A,,G,]2!ped-up! [C,^F,]2 .D,,2 [A,,E,]2 [=C,D,]2 | D,2 G, x z2 x2 G, x z2 | %44
 z2 !>!A,4- x2 x4 | .[D,D]2 [G,,G,]4 [G,D]2 G,4 | [G,CE]6- [G,CE]2 G,2 x2 | %47
 x2 z2 z2[K:treble] (!>![E^FAe]2 d2 D2 |!ped! .G,2) (D2!ped-up! d2 !>![E^FAe]2 d2 D2 | %49
!ped! .G,2) z2!ped-up![K:bass] (D,2 !>![E,^F,A,E]2 D2 D,2 |!ped! .G,,2) D,4!ped-up! x2 x4 | %51
!ped! (G,,2 [D,B,]2) z2!ped-up! ([^C,,^C,]2 [D,,D,]2) z2 | %52
!ped! ([G,,,G,,]2 D,2) z2!ped-up! (^C,,2 D,,2) z2 | %53
!ped! [G,,,G,,]2 z2!ped-up! (=C,,2!ped! [G,,,G,,]2) z2!ped-up! (C,,2 | %54
!ped! [G,,,G,,]2) z2!ped-up! (C,,2!ped! [G,,,G,,]2) z2!ped-up! (C,,2 | %55
!ped! [G,,,G,,]6) z2 (.[DG]2 .[G,D]2 | [DG]4) z2 z2 z2 (D,,2!ped-up! | %57
!ped! [G,,,G,,]6-) [G,,,G,,]4 (D,,2!ped-up! | [^F,,,^F,,]6-) [F,,,F,,]4 (D,,2 | %59
!ped! [G,,,G,,]6) z2 (.[D,G,]2 .[G,,D,]2 | [D,G,]4) z2 z2 z2 (D,,2!ped-up! | %61
!ped! [_G,,,_G,,]6-) [G,,,G,,]4 (D,,2!ped-up! |!ped! F,,6-) (F,,4 G,,2!ped-up! | %63
!ped! A,,4) z2 z2 (.[CF]2 .[F,C]2 | [CF]6- [CF]4 [F,C]2) |"^riten." ([CF]6- [CF]4 [F,C]2 | %66
 [CF]4 [F,C]2 [CF]2 [F,C]2) z2!ped-up! |!ped! (B,,,2 B,,2 _A,2!ped-up!!ped! F,2 C2 B,2)!ped-up! | %68
!ped! (E,,2 B,,2 E,2 G,2 B,2 E2)!ped-up! |!ped! (C2 E2 F,2!ped-up! E2 G2 F2) | %70
!ped! (B,,2 F,2 B,2[K:treble] D2 F2 B2)!ped-up! |!ped! (C2 E2 G,2 B,2 D2 _A2)!ped-up! | %72
[K:bass]!ped! (B,2 D2 E,2!ped-up!!ped! _A,2 C2 G2)!ped-up! | %73
!ped! (_A,2 C2 D,2!ped-up!!ped! G,2 =B,2 F2)!ped-up! | %74
!ped! (G,2 C2 C,2!ped-up!!ped! F,2 =A,2 E2)!ped-up! | %75
!ped! (F,2 _A,2 B,,2!ped-up!!ped! A,2 C2 B,2)!ped-up! |!ped! (E,,2 B,,2 E,2 G,2 B,2 E2)!ped-up! | %77
!ped! (C2 E2 F,2!ped-up! E2 G2 F2) |!ped! (B,,2 F,2 B,2[K:treble] D2 F2 B2)!ped-up! | %79
[K:bass]!ped! (C,,2 =E2!ped-up! B,2!ped! G,2 E2 B,2)!ped-up! | %80
!ped! (F,2 _E2 A,2)!ped-up!!ped! (B,,2 D2 _A,2)!ped-up! |!ped! (E,,B,,G,E,B,G, E2) z2 z2!ped-up! | %82
!ped! (E,,B,,G,E,B,G, E2) z2 z2!ped-up! |!ped! (E,,B,,_A,F,B,A, D2) z2 z2!ped-up! | %84
!ped! (E,,B,, F,2) z2!ped-up!!ped! (E,,_C, _A,2) z2!ped-up! | %85
!ped! (E,,B,,G,E,!>!B,G, E2) z2 z2!ped-up! |!ped! (E,,B,,G,E,B,G, E2) z2 z2!ped-up! | %87
!ped! (E,,B,,_A,E,B,A, D2) z2 z2!ped-up! | %88
!ped! (E,,B,, G,2) z2!ped-up!!ped! (E,,_C, _A,2) z2!ped-up! | %89
!ped! (E,,B,,G,E,!>!B,G, E2)"^sempre dim." z2 z2!ped-up! |!ped! (E,,B,,G,E,B,G, E2) z2 z2!ped-up! | %91
!ped! (B,,F,!ped-up!!ped!DB,FD B2)"^rallent." z2 z2!ped-up! | %92
!ped! (D,A,[K:treble]FDcF)!ped-up![I:staff -1] d"^m.g."[I:staff +1] z z2 z2 | %93
[K:bass] z2!pp!!ped! (.=E,,2 .E,,2) z2 (.E,,2 .E,,2)!ped-up! | %94
 z2!ped! (.=E,,2 .E,,2)"^m.g." z2 (.[=E,A,]2 .[E,A,]2)!ped-up! | %95
"^m.g."!ped! z2 (.[=E,A,]2 .[E,A,]2)!ped-up! z2!ped! (.=E,,2 .E,,2)!ped-up! | %96
 z2!ped! (.=E,,2 .E,,2)!ped-up!!ped! z2 (.E,,2 .E,,2)!ped-up! |!ped! ^G,6 x6!ped-up! | %98
 z2!ped! (.=E,,2 .E,,2)"^m.g." z2 (.[=E,A,C]2 .[E,A,C]2) | %99
"^m.g." z2 (.[=E,A,C]2 .[E,A,C]2)!ped-up! z2!ped! (.=E,,2 .E,,2)!ped-up! | %100
!ped! z2 (.=E,,2 .E,,2)"^m.g." z2 (.[=E,A,C]2 .[E,A,C]2)!ped-up! | %101
"^m.g."!ped! z2 [=E,A,C]2 [E,A,C]2!ped-up!"^m.g."!ped! z2 [E,A,C]2 z2!ped-up! | %102
!ped! z2 [=E,A,C]2 [E,A,C]2!ped-up!!ped! z2 [E,A,C]2 z2!ped-up! | %103
!ped! z2 [=E,A,C]2 [E,A,C]2!ped-up!!ped! z2 [E,A,C]2 z2!ped-up! | %104
!ped! z2 [=E,A,C]2 [E,A,C]2 z2 [E,A,C]2 !arpeggio![E,A,C]2!ped-up! | %105
!ped! [=E,,,=E,,]2 [=E,^G,D]2 [G,D=E]2 [=B,D^G]2 [G,DE]2 [E,G,D]2!ped-up! | %106
!ped! [A,,,A,,]2 [=E,^C]2 [A,=E]2 [CA]2 [A,E]2 [E,C]2!ped-up! | %107
!ped! [=B,,,=B,,]2 [^F,=B,]2 [A,^D]2 [B,^F]2 [A,D]2 [F,B,]2!ped-up! | %108
!ped! [=E,,=E,]2 [E,=B,]2 [^G,=E]2 [B,^G]2 [G,E]2 [E,B,]2!ped-up! | %109
!ped! [^F,,^F,]2 [F,D]2 [A,A]2!ped-up!!ped! [=B,,,=B,,]2 D4!ped-up! | %110
!ped! [=E,,=E,]2 [E,^C]2 [^G,^G]2!ped-up!!ped! [A,,,A,,]2 C4!ped-up! | %111
 [D,,D,]2 [D,=B,]2 [^F,^F]2 [^C,,^C,]2 [^G,^CE]2 [B,^E]2 | %112
 [^F,,,^F,,]2 ^C2 [A,^F]2 [=B,,,=B,,]2 =B,2 [A,^D]2 | %113
!ped! [=E,,,=E,,]2 [=B,,^G,]2 [=E,=B,]2 [G,D]2 [E,B,]2 [B,,G,]2!ped-up! | %114
!ped! [A,,,A,,]2 [=E,^C]2 [A,=E]2 [CA]2 [A,E]2 [E,C]2!ped-up! | %115
!ped! [=B,,,=B,,]2 [^F,=B,]2 [A,^D]2 [B,^F]2 [A,D]2 [F,B,]2!ped-up! | %116
!ped! [=E,,=E,]2 [E,=B,]2 [^G,=E]2 [B,^G]2 [G,E]2 [E,B,]2!ped-up! | %117
!ped! [=E,,=E,]2 [E,^A,]2 [^F,^C]2 [A,=E]2 [F,C]2 [E,A,]2!ped-up! | %118
!ped! [=E,,,=E,,]2 [=E,^A,]2 [^F,^C]2 [A,=E]2 [F,C]2 [E,A,]2!ped-up! | %119
!ped! [=E,,=E,]2 [E,^B,]2 [^G,^D]2 [B,^F]2 [G,D]2 [E,B,]2!ped-up! | %120
!ped! [=E,,,=E,,]2 [=E,^B,]2 [^G,^D]2 [B,^F]2 [G,D]2 [E,B,]2!ped-up! | %121
!ped! [=E,,=E,]2 [E,^C]2 [^G,=E]2!ped-up!!ped! [^D,,^D,]2 [D,=B,]2 [G,^D]2!ped-up! | %122
!ped! [^C,,^C,]2 [C,^G,]2 [=E,^C]2!ped-up!!ped! [^G,,,^G,,]2 [=B,,G,]2 [^D,=B,]2!ped-up! | %123
!ped! [^E,,,^E,,]2 z2 z2 !arpeggio![^E,=B,^D^G]4 z2 | z12 | %125
 (_B,,,2!ped-up! D,2)"^più animato." z2 (B,,,2 D,2) z2 | (_B,,,2 D,2) z2 (B,,,2 D,2) z2 | %127
 (!>!D,2 F2) z2 (!>!D,2 F2) z2 | (!>!D,2 F2) z2 (!>!D,2 F2) z2 | %129
!ped! B,,,2 z2 z2!ped-up! [B,,F,_A,]2 z2 z2 | [F,_A,D]2 z2 z2 [A,DF]2 z2 z2 | %131
[K:treble] [B,F_A]2 z2 z2 [FAd]2 z2 z2 | [_Adf]2 z2 z2 [Bf_a]2 z2 z2 | [f_ad']12- | %134
 [fad']6 ([e_ac']6 | [e_a-c']6 [dab]2) z2 z2 | z12 | %137
[K:bass]!ped! .E,2[K:treble] (c2 B2)!ped-up![K:bass]!ped! .B,,2[K:treble] [D_A]4!ped-up! | %138
[K:bass]!ped! .E,2[K:treble] (c2 B2)!ped-up![K:bass]!ped! .B,,2[K:treble] [D_A]4!ped-up! | %139
[K:bass]!ped! .E,2[K:treble] (_A2 G2)!ped-up![K:bass]!ped! ._A,,2[K:treble] (G2 F2)!ped-up! | %140
[K:bass]!ped! x2 (E2 D2)!ped-up!!ped! x2 (C2 B,2)!ped-up! | %141
!ped! .E,2[K:treble] (c2 B2)!ped-up![K:bass]!ped! .B,,2[K:treble] [D_A]4!ped-up! | %142
[K:bass]!ped! .E,2[K:treble] (c2 B2)!ped-up![K:bass]!ped! .B,,2[K:treble] [D_A]4!ped-up! | %143
[K:bass]!ped! .E,2[K:treble] (_A2 G2)!ped-up![K:bass]!ped! ._A,,2[K:treble] (G2 F2)!ped-up! | %144
[K:bass]!ped! .B,,2 z2 [F,_A,=D]2!ped-up! [F,A,D]2 [F,A,D]2 [F,A,D]2 | %145
 [E,B,_D]2 z [E,,E,] [E,,E,]2 [_A,C]2 [G,,G,]2 [_G,,_G,]2 | %146
 [=A,E]2 z [F,,F,] [F,,F,]2 [_B,D]2 [A,,A,]2 [_A,,_A,]2 | %147
 [=B,F]2 z [G,,G,] [G,,G,]2 [=CE]2 !>![C,,C,]2 z2 | ([_A,_E]2 !>!_C,2) z2 ([A,=D]2 !>!B,,2) z2 | %149
 [E,,E,]2 [G,,G,]2 [_A,,_A,]2 [G,,G,]2 [E,,E,]2 [B,,B,]2 | %150
 [=B,,=B,]2 [F,,F,]2 [B,,B,]2 [A,,A,]2 [F,,F,]2 [C,C]2 | %151
 [=B,,=B,]2 [G,,G,]2 [C,C]2 [B,,B,]2 [G,,G,]2 [D,D]2 | %152
 [^C,^C]2 [A,,A,]2 [=E,=E]2 [^D,^D]2 [=B,,=B,]2 [=D,=D]2 | %153
!ped! [^C,,^C,]2[K:treble] z ([A,^C^FA] .[A,CFA]2 .[A,CFA]2 .[A,CFA]2 .[A,CFA]2) | %154
 [A,^C^FA]6 z2 z2[K:bass] [^C,,^C,]2!ped-up! | %155
!ped! [^B,,,^B,,]2 z ([^F,A,^D] [F,A,D]2 [F,A,D]2) z2 ([=C,,=C,]2!ped-up! | %156
!ped! [_C,,_C,]2) z ([_G,A,E] [G,A,E]2 [G,A,E]2) z2 (([C,,C,]2!ped-up! | %157
 [B,,,B,,]2))!p! z2 z2 z2 ([A,=C_E]2 [_A,B,D]2 | [G,B,E]2) z2 z2 z2[K:treble] ([Ac_e]2 [_ABd]2 | %159
 [GBe]2) z2 z2 z2 ([ac'e']2 [_abd']2 | [gbe']2) z2 z2 z2 ([ac'e']2 [_abd']2 | %161
 [gbe']2) z2 z2!ped! [CEF=A]2 z2 z2 |[K:bass] z12!ped-up! |!ped! [_C,E,_A,E]2 z2 z2!ped-up! z6 | %164
 !>!_C,,2 z2 z2 z6 |!ped! (B,,,F,,B,,=D,B,,F,, B,,,F,,B,,D,B,,F,,)!ped-up! | %166
!ped! (E,,B,,E,G,E,B,,) (E,,B,,E,B,E,B,,)!ped-up! | %167
!ped! (F,,C,E,B,E,C,)!ped-up!!ped! (F,,C,E,B,E,C,)!ped-up! | %168
!ped! (B,,F,B,DB,F,) (B,,F,B,FB,F,)!ped-up! | %169
!ped! (B,,G,C=ECG,)!ped-up!!ped! (B,,_A,CFCA,)!ped-up! | %170
!ped! (B,,F,_A,DA,F,)!ped-up!!ped! (B,,E,G,EG,E,)!ped-up! | %171
!ped! (B,,E,_A,CA,E,)!ped-up!!ped! (B,,F,A,DA,F,)!ped-up! | %172
!ped! (=B,,F,G,DG,F,)!ped-up!!ped! (C,E,G,E_G,E,)!ped-up! | %173
!ped! (D,_A,B,FB,A,)!ped-up!!ped! (B,,F,B,DB,F,)!ped-up! | %174
!ped! (E,,B,,E,G,B,E GEB,G,E,B,,)!ped-up! | %175
!ped! (F,,C,E,B,E,C,)!ped-up!!ped! (F,,C,E,B,E,C,)!ped-up! | %176
!ped! (B,,,B,,F,B,DF[K:treble] dBFD[K:bass]B,F,)!ped-up! | %177
!ped! (B,,=E,G,CG,E,) (B,,E,G,CG,E,)!ped-up! | %178
!ped! (B,,F,=A,CA,F,)!ped-up!!ped! (B,,F,_A,DA,F,)!ped-up! | %179
!ped! (E,,B,,E,G,E,B,, E,,B,,E,B,!ped-up!E,B,, |!ped! E,,B,,E,G,E,B,, E,,B,,E,B,!ped-up!E,B,, | %181
!ped! E,,B,,D,_A,D,B,, E,,B,,D,B,!ped-up!D,B,, |!ped! E,,B,,E,G,E,B,,) (E,,_C,E,_A,E,!ped-up!C,) | %183
!ped! (E,,B,,E,G,E,B,, E,,B,,E,B,E,!ped-up!B,, |!ped! E,,B,,E,G,E,B,, E,,B,,E,B,E,!ped-up!B,,) | %185
!ped! (E,,B,,D,_A,D,B,, E,,B,,D,B,D,!ped-up!B,, | %186
!ped! E,,B,,E,G,E,B,,)!ped-up!!ped! (E,,_C,E,_A,E,C,)!ped-up! | %187
!ped! (E,,B,,E,G,E,B,, E,,B,,E,B,E,B,,!ped-up! |!ped! E,,B,,E,G,E,B,, E,,B,,E,B,E,B,,)!ped-up! | %189
!ped! (G,,D,G,B,DB, GDB,G,D,G,,!ped-up! | %190
!ped! G,,,G,,D,G,B,D[K:treble] BGD[K:bass]B,G,D,)!ped-up! | (G,,D, D2) z2 z6 | z12 | %193
!pp! z2 (.D,,2 .D,,2) z2 (.D,,2"^sotto voce" .D,,2) |!ped! x6 D6!ped-up! | %195
!ped! C6 x6!ped!!ped-up! |!ped! z2 (.D,,2 .D,,2)!ped-up!!ped! z2 (.D,,2 .D,,2)!ped-up! | %197
 z2 (.D,,2 .D,,2) z2 (.D,,2 .D,,2) |"^cresc." x6!ped! (D6 | =E6)!ped-up! x6 | x6 (!>!=E6 | %201
"_appassionato"!ped! !>!^F6 =E4)!ped-up! z (F |!ped! !>!^F6 =E4)!ped-up! z (F | %203
!ped! !>!^F6 =E4)!ped-up! z (F |!ped! !>!A6 G4)!ped-up! A2 | %205
!ped! [D,,,D,,]2 ([D,B,]2 [G,D]2 [B,G]2 [G,D]2 [D,B,]2)!ped-up! | %206
!ped! [D,,,D,,]2 ([D,^F,C]2 [F,CD]2 [C^F]2!ped-up! [F,CD]2 [D,F,C]2 || %207
[M:2/2]!ped! [G,,,G,,]2) z2 [B,DG]2 .B,,2!ped-up! | %208
!ped! [B,DG]2 .D,2!ped-up!!ped! [B,DG]2 .D,2!ped-up! | %209
!ped! [A,=CEG]2 .A,,2!ped-up! [A,=CEG]2 .A,,2 | [=CD^F]2 .D,2 [=CDF]2 .D,2 | %211
!ped! [G,DG]2 .G,,2 [B,DG]2 .B,,2!ped-up! |!ped! [B,DG]2 .D,2!ped-up!!ped! [B,DG]2 .D,2!ped-up! | %213
!ped! [A,=CEG]2 .A,,2!ped-up! [A,=CEG]2 .A,,2 | [=CD^F]2 .D,2 [=CDF]2 .D,2 | %215
 [G,DG]2!ped! !>!C,4 [_A,E]2!ped-up! |!ped! D,2 [=A,CD]2!ped-up!!ped! G,,2 [G,B,D]2!ped-up! | %217
!ped! z2 [_A,E]4 [A,E]2!ped-up! |!ped! D,2 [=A,CD]2!ped-up!!ped! G,,2 .[G,B,D]2!ped-up! | %219
!ped! .=B,,2 [F,_A,D]2!ped-up!!ped! z2 [E,A,C]2!ped-up! | %220
!ped! z2 [F,_A,=B,]2!ped-up!!ped! z2 A,2!ped-up! |!ped! ^F,,2 [^F,CE]2!ped-up! [G,B,D]2 G,,2 | %222
 C,2 [A,EG]2 z2 [A,D]2 | [G,B,D]2!ped! !>!C,4 [_A,E]2!ped-up! | %224
!ped! .D,2 [=A,CD]2!ped-up!!ped! .G,,2 [G,B,D]2!ped-up! |!ped! z2 [_A,E]6!ped-up! | %226
!ped! D,2 [=A,CD]2!ped-up!!ped! G,,2 [G,B,D]2!ped-up! | %227
!ped! [=B,,,=B,,]2 [F,_A,D]2!ped-up!!ped! [C,,C,]2 [E,G,C]2!ped-up! | %228
!ped! [D,,D,]2 [^F,=A,]2!ped-up!!ped! [=E,,=E,]2 G,2!ped-up! | %229
!ped! [^F,,^F,]2 [F,=C_E]2!ped-up! [G,CE]2 .[G,,G,]2 | %230
!ped! .[_A,,_A,]2 [A,E_G]2 [=A,EG]2!ped-up! .[=A,,A,]2 | %231
!ped! .[B,,B,]2 [B,E_G]2 [_CE=A]2!ped-up! .[=B,,=B,]2 | %232
!ped! [=C,=C]2[K:treble] !>![CD^FA]4 [CDFA]2!ped-up! | %233
[K:bass]!ped! [B,,B,]2[K:treble] [G,DG]2!ped-up![K:bass]!ped! [C,C]2[K:treble] [A,EG]2!ped-up! | %234
[K:bass]!ped! [D,D]2[K:treble] [DGB]2!ped-up![K:bass]!ped! [C,C]2[K:treble] [CD^FA]2!ped-up! | %235
[K:bass]!ped! [B,,B,]2[K:treble] [G,DG]2!ped-up![K:bass]!ped! [C,C]2[K:treble] [A,EG]2!ped-up! | %236
[K:bass]!ped! [=D,=D]2[K:treble] [DGB]2!ped-up![K:bass]!ped! [C,C]2[K:treble] [CD^FA]2!ped-up! | %237
[K:bass]!ped! [B,,B,]2 z2[K:treble] (!>![gbd']d) z2 | %238
 (!>![GBd]D) z2[K:bass] (!>![G,B,D]D,) z2!ped-up! | %239
 (!>![^F,,,^F,,][G,,,G,,]) z2 (!>![^C,,^C,][D,,D,]) z2 | %240
 (!>![^F,,,^F,,][G,,,G,,]) z2 (!>![^C,,^C,][D,,D,]) z2 | !>![D,,,D,,]4 z4 | %242
 z4 !>![G,_B,^C=E]3 [G,B,CE] | [G,B,^C^F]4 [G,_B,C=E]3 [G,B,CE] | [G,B,^C^F]4 [G,B,C=E]4 | %245
!ped! !>![D,A,=CG]8- [D,-A,-C-G]8!ped-up! | [D,A,C^F]8 z8 | !>!G,,,8- | %248
 (21:16:21G,,,/A,,,/B,,,/C,,/D,,/=E,,/^F,,/G,,/A,,/B,,/C,/D,/=E,/^F,/G,/A,/B,/C/[I:staff -1]D/=E/^F/ | %249
 !wedge!G[I:staff +1] z z2!ped! ([G,,,G,,]3 [G,,,G,,] | %250
 [G,,,G,,]4)!ped-up! (6:4:6z (D,,G,,A,,C,B,, | .B,,) z z2 G,,,4- | %252
 (28:16:28(G,,,/A,,,/B,,,/C,,/D,,/=E,,/^F,,/ G,,/A,,/B,,/C,/D,/=E,/^F,/G,/A,/B,/C/D/[K:treble]=E/^F/G/A/B/c/d/=e/^f/ | %253
 !wedge!g) z z2[K:bass]!ped! ([G,,,G,,]3 [G,,,G,,] | %254
 [G,,,G,,]4)!ped-up! (6:4:6z"^accel." (D,G,B,ED | %255
 .D) z z2!fff!{/B,,,-} (3[B,,,B,,]2"^poco riten."{/=B,,,-} [B,,,=B,,]2{/C,,-} [C,,C,]2 | %256
{/^C,,-} (3[C,,^C,]2{/D,,-} [D,,D,]2{/^D,,-} [D,,^D,]2 (3[=E,,=E,]2 [F,,F,]2 [^F,,^F,]2 | %257
 (3[G,,G,]2 [^F,,^F,]2 [=F,,=F,]2 (3[=E,,=E,]2 [_E,,_E,]2 [D,,D,]2 | %258
 (3[^C,,^C,]2 [=C,,=C,]2 [=B,,,=B,,]2 (3[_B,,,_B,,]2 [A,,,A,,]2 [_A,,,_A,,]2 |!ped! [G,,,G,,]4 z4 | %260
 [G,DG]8 | !fermata![G,,,G,,]8!ped-up! |] %262
V:3
 x8 | x8 | x8 | x8 | x8 | x8 | x8 ||[M:6/4] x6 x C4 x | z2 (.[B,D]2 .[B,D]2) z2 (.[DG]2 .[DG]2) | %9
 x2 (.[EG]2 .[EG]2) x x D3 x | z2 (.[B,D]2 .[B,D]2) z2 (.[G,A,^C]2 .[G,A,C]2) | %11
 z2 (.[^F,A,D]2 .[F,A,D]2) x x D3 x | z2 (.[B,D]2 .[B,D]2) z2 (.[GB_d]2 .[GBd]2) | %13
 z2 (.[Bc]2 .[Bc]2) x2 A4 | z2 (.[EFA]2 .[EFA]2) z2 (.[DFB]2 .[DFB]2) | z2 (.[EG]2 .[EG]2) x C4 x | %16
 z2 (.[B,D]2 .[B,D]2) z2 (.[DG]2 .[DG]2) | x2 (.[EG]2 .[EG]2) x x D3 x | %18
 z2 (.[B,D]2 .[B,D]2) z2 (.[G,A,^C]2 .[G,A,C]2) | z2 (.[^F,A,D]2 .[F,A,D]2) x x D3 x | %20
 z2 (.[=B,D=F]2 .[B,DF]2) z2 (.[FG=Bd]2 .[FGBd]2) | z2 (.[Gce]2 .[Gce]2) z2 (.[DG]2 .[DG]2) | %22
 z2 (.[CG]2 .[CG]2) z2 (.[B,D]2 .[B,D]2) | z2 (.[Gce]2 .[Gce]2) z2 (.[DG]2 .[DG]2) | %24
 z2 (.[CG]2 .[CG]2) z2 (.[B,^C]2 .[B,C]2) | z2 (.[B,D]2 .[B,D]2) z2 (.[DFB]2 .[DFB]2) | %26
 [_EA]2 [EA]2 [EA]2 [EA]2 [_EA]2 [EA]2 | z2 [E_B]2 [EB]2 [DB]2 [DB]2 [DB]2 | %28
 [C^F]2 [CF]2 [CF]2 [CF]2 [CF]2 [CF]2 | z2!>(! [C=G]2 [CG]2!>)! [B,G]2 [B,G]2 [B,G]2 | %30
 [EG]2 [EG]2 [EG]2 [D^F]2 [DF]2 [DF]2 | !arpeggio![A,=E]2 x10 | x12 | x12 | x12 | x12 | x12 | x12 | %38
 x8 ED^C=C | x2 Bd=fe x2 A^ced | x2 Bdfe x2 _A^ced | x2 G=Bd=c x2 C^G_BA | x2 [Ee]4 x2 [^F,^F]4 | %43
 x12 | x12 | x8 (!>!ED) x2 | z2 !>!A4- (A2 G2 [Ee]2) | [Gd]2 x2!8va(! x8 | x12 | x12!8va)! | x12 | %51
 x12 | x12 | x12 | x12 | x10!8va(! x2 | x4!8va)! x8 | x12 | x12 | x10!8va(! x2 | x4!8va)! x8 | %61
 x12 | x12 | x10!8va(! x2 | x2!8va)! x10 | x12 | x12 | x6 D6 | E6 x2 x4 | x6 A6 | B6 x2 x4 | x12 | %72
 x12 | x12 | x12 | x6 D6 | E6 x2 x4 | x6 A6 | B6 x2 x4 | x12 | x12 | x12 | x12 | x12 | %84
 x2 (3:2:2x _D2 x4 x _C2 x | x12 | x12 | x12 | x2 (3:2:2x _D2 x4 x !>!_C2 x | x12 | x12 | x12 | %92
 x12 | x6 x D4 x | z2 (.[C=E]2 .[CE]2) z2 (.A2 .A2) | z2 (.[FA]2 .[FA]2) x D4 x | %96
 z2 (.[C=E]2 .[CE]2) z2 (.[A,CE]2 .[A,CE]2) | x2 (.[=B,=E]2 .[B,E]2) x D4 x | %98
 z2 (.[C=E]2 .[CE]2) z2!<(! (.[Ac]2 .[Ac]2)!<)! | z2 (.[=EAc]2 .[EAc]2) x C4 x | %100
 z2!<(! (.[C=E]2!<)! .[CE]2) z2!f! (.[EAc]2 .[EAc]2) | %101
 z2"^.7" [Ac^d]2"^.3" [Acd]2 z2"^.7" [Acd]2 z x | z2"^.7" [Ac^d]2"^.3" [Acd]2 z2"^.7" [Acd]2 z x | %103
 z2"^.7" [Ac^d]2"^.3" [Acd]2 z2"^.7" [Acd]2 z x | %104
 z2"^.7" [c^d^f]2"^.3" [cdf]2 z2"^.7"!<(! [cdf]2 [cdf]2!<)! | x12 | x12 | x12 | x12 | %109
 !>![=e=e']4 [dd']2 (3([dd'][ee'][dd'][^c^c'][dd'][^f^f'][ee']) | g12 | ^f6 ^e6 | %112
 [^c^f]6 [A=Bd]2 [ABd][ABd][ABd][ABd] | x12 | x12 | x12 | x6!8va(! x6 | x2!8va)! x10 | x12 | x12 | %120
 ^G"^.6"!<(!^g"^.4"a"^.3"g[^^F^^f]"^.1"[Gg] [^A^a]"^.9"[^B^b]"^.8"[^c^c']"^.7"[^d^d']"^.6"[=e=e']"^.4"[^f^f']!<)! | %121
 x12 | x12 | x12 |[K:bass] x12 | x12 | x12 | x12 | x12 |[K:treble] x12 | x12 | x12 |!8va(! x12 | %133
 x12 | x12 | x12 | x6!8va)! x6 | x12 | x12 | x12 | e_afdaf cafBaf | x12 | x12 | x12 | x12 | x12 | %146
 x12 | x12 | x12 | x8 E2 =E2 | x2 F2 =E2 x2 F2 ^F2 | x2 G2 ^F2 x2 G2 ^G2 | %152
 =E=eA^c^Ag ^F^f=B^d^B=a- | x12 | x12 | x12 | x12 | x12 | x12 | x12 | x12 | x6!8va(! x6 | %162
 x6!8va)! x6 | x12 | x12 | x12 | x12 | x12 | x12 | (5:3:5c2 _b2 =e2 _b2 e2 x2 x2 x _e | %170
 (5:3:5d2 _a2 d2 _a2 d2 x2 x2 x d | (5:3:5c2 e2 c2 e2 c2 x2 x2 x2 | x12 | x12 | x12 | x12 | x12 | %177
 x6 .C2 z2 .D2 | ._E2 .D2 .E2 (4:3:4(.G2 ._A2 .B2 .A2) | G4 x8 | x12 | x12 | %182
 x2 (3:2:2x _D2 x4 x _C2 x | x12 | x12 | x12 | x4 x4 x _C2 x | x12 | x12 | x12 | x12 | x12 | x12 | %193
 x6 x C4 x | z2 (.[B,D]2 .[B,D]2) z2 (.G2 .G2) | z2 (.[EG]2 .[EG]2) x C4 x | %196
 z2 (.[B,D]2 .[B,D]2) z2[I:staff +1] (.[G,B,^C]2 .[G,B,C]2) | %197
[I:staff -1] z2[I:staff +1] (.[^F,A,D]2 .[F,A,D]2)[I:staff -1] x C4 x | %198
 z2 (.[B,D]2 .[B,D]2) z2!f!!<(! (.[GB]2 .[GB]2) | z2!<)! (.[GB]2 .[GB]2) x B,4 x | %200
 z2 (.[B,^C=E]2 .[B,CE]2) z2 (.[GB^c]2 .[GBc]2) | z2 (.[GB^c]2 .[GBc]2) z2 [GBc]2 z2 | %202
 z2 (.[GB^c]2 .[GBc]2) z2 [GBc]2 z2 | z2 (.[GB^c]2 .[GBc]2) z2 [GBc]2 z2 | %204
 z2 (.[B^c=e]2 .[Bce]2) z2 [Bce]2 z2 | x3!8va(! x9!8va)! | x12 ||[M:2/2] x2!8va(! x6!8va)! | x8 | %209
 x8 | x8 | x2!8va(! x6!8va)! | x8 | x8 | x8 | x2 (_a[e'_a'] a!>![ea]G[eg] | %216
 ^F[=A^f]f[=a^f'] g[bg']g[Bg]) | (!>!_A[e_a]a[e'_a'] a!>![ea]G[eg]) | %218
 ^F[=A^f]f[=a^f'] g[bg']g[Bg] | F[_A=f]f[_a=f'] f[Ae]E[Ae] | D[_Ad]d[_ad'] d[Ac]C[Ac] | %221
 C[Ec]c[ec'] !>!c[ec'] !>!B[db] | !>!B[db]A[ca] G[Bg]^F[A^f] | x2 (_a[e'_a'] a!>![ea]G[eg] | %224
 ^F[=A^f]f[=a^f'] g[bg']g[Bg]) | (_A[e_a]a[e'_a'] a!>![ea]G[eg] | ^F[=A^f]f[=a^f'] g[bg']g[Bg]) | %227
 x8 | D[^Fd]d[^fd'] d[=E^c]^C[Ec] | C[_E=c]c[ec'] =B[e=b]c[ec'] | c[ec']e[_ge'] d[gd']e[ge'] | %231
 e[_ge']g[b_g'] f[_af']g[__bg'] |!8va(! ^f[a^f']a[c'a'] b[d'b']c'[e'c''] | %233
 !>!c'[e'c'']b[d'b'] !>!b[d'b']a[c'a'] | !>!a[c'a']g[bg'] !>!g[bg']d[^fd'] | x8 | x8 | %237
 x4!8va)! x4 | x8 | x8 | x8 | x8 | x8 | x8 |!8va(! x8 | x66/5!8va)! x14/5 | x16 | x8 | x255/32 | %249
 x8 | x8 | x8 | x23/4!8va(! x47/20 | x!8va)! x7 | x8 | x4!8va(! x4 | x8!8va)! | x8 | x8 | x8 | x8 | %261
 x8 |] %262
V:4
 x8 | x8 | x8 | x8 | x8 | x8 | x8 ||[M:6/4] x6 x !>!CD^FBA | x12 | x6 x2 x ^F2 x | x12 | %11
 x6 x2 x ^F2 x | x12 | x12 | x12 | x6 x !>!CD^FBA | x12 | x6 x2 x ^F2 x | x12 | x6 x2 x ^F2 x | %20
 x12 | x12 | x12 | x12 | x12 | x12 | x12 | x12 | x12 | x12 | x12 | x12 | x12 | x12 | x12 | x12 | %36
 x12 | x12 | x12 | x12 | x12 | x12 | x12 | x12 | x12 | x12 | x12 | x3!8va(! x9 | x12 | x12!8va)! | %50
 x12 | x12 | x12 | x12 | x12 | x10!8va(! x2 | x4!8va)! x8 | x12 | x12 | x10!8va(! x2 | %60
 x4!8va)! x8 | x12 | x12 | x10!8va(! x2 | x2!8va)! x10 | x12 | x12 | x12 | x12 | x12 | x12 | x12 | %72
 x12 | x12 | x12 | x12 | x12 | x12 | x12 | x12 | x12 | x12 | x12 | x12 | x12 | x12 | x12 | x12 | %88
 x12 | x12 | x12 | x12 | x12 | x6 x2 =E3 x | x6 =E6 | D6 x2 =E3 x | x12 | x6 x2 =E3 x | x6 =E6 | %99
 ^F6 z2 =E3 x | x6 ^F6 | ^G6 ^F4 x G | ^G6 ^F4 x G | ^G6 ^F4 x G | A6 ^G4 A2 | x12 | x12 | x12 | %108
 x12 | x12 | x12 | x12 | !>!=B2 A4 x2 x4 | x12 | x12 | x12 | x6!8va(! x6 | x2!8va)! x10 | x12 | %119
 x12 | x12 | x12 | x12 | x12 |[K:bass] x12 | x12 | x12 | x12 | x12 |[K:treble] x12 | x12 | x12 | %132
!8va(! x12 | x12 | x12 | x12 | x6!8va)! x6 | x12 | x12 | x12 | x12 | x12 | x12 | x12 | x12 | x12 | %146
 x12 | x12 | x12 | x12 | x12 | x12 | x12 | x12 | x12 | x12 | x12 | x12 | x12 | x12 | x12 | %161
 x6!8va(! x6 | x6!8va)! x6 | x12 | x12 | x12 | x12 | x12 | x12 | x12 | x12 | x12 | x12 | x12 | %174
 x12 | x12 | x12 | x12 | x8 d4 | x12 | x12 | x12 | x12 | x12 | x12 | x12 | x12 | x12 | x12 | x12 | %190
 x12 | x12 | x12 | x6 x2 D3 x | x12 | x8 D3 x | x12 | x8 D3 x | x12 | x8 ^C3 x | x12 | x12 | x12 | %203
 x12 | x12 | x3!8va(! x9!8va)! | x12 ||[M:2/2] x2!8va(! x6!8va)! | x8 | x8 | x8 | %211
 x2!8va(! x6!8va)! | x8 | x8 | x8 | x8 | x8 | x8 | x8 | x8 | x8 | x8 | x8 | x8 | x8 | x8 | x8 | %227
 x8 | x8 | x8 | x8 | x8 |!8va(! x8 | x8 | x8 | x8 | x8 | x4!8va)! x4 | x8 | x8 | x8 | x8 | x8 | %243
 x8 |!8va(! x8 | x66/5!8va)! x14/5 | x16 | x8 | x255/32 | x8 | x8 | x8 | x23/4!8va(! x47/20 | %253
 x!8va)! x7 | x8 | x4!8va(! x4 | x8!8va)! | x8 | x8 | x8 | x8 | x8 |] %262
V:5
 x8 | x8 | x8 | x8 | x8 | x8 | x8 ||[M:6/4] x6 x2 x ^F2 x | x12 | x6 x !>!CD^FBA | x12 | %11
 x6 x !>!CD^FBA | x12 | x6 !>!EFAe=dz/^c/ | x12 | x6 x2 x ^F2 x | x12 | x6 x !>!CD^FBA | x12 | %19
 x6 x !>!CD^FBA | x12 | x12 | x12 | x12 | x12 | x12 | x12 | x12 | x12 | x12 | x12 | x12 | x12 | %33
 x12 | x12 | x12 | x12 | x12 | x12 | x12 | x12 | x12 | x12 | x12 | x12 | x12 | x12 | x3!8va(! x9 | %48
 x12 | x12!8va)! | x12 | x12 | x12 | x12 | x12 | x10!8va(! x2 | x4!8va)! x8 | x12 | x12 | %59
 x10!8va(! x2 | x4!8va)! x8 | x12 | x12 | x10!8va(! x2 | x2!8va)! x10 | x12 | x12 | x12 | x12 | %69
 x12 | x12 | x12 | x12 | x12 | x12 | x12 | x12 | x12 | x12 | x12 | x12 | x12 | x12 | x12 | x12 | %85
 x12 | x12 | x12 | x12 | x12 | x12 | x12 | x12 | x6 x3 ^G2 x | x12 | x6 x3 ^G2 x | x12 | x12 | %98
 x12 | x12 | x12 | x12 | x12 | x12 | x12 | x12 | x12 | x12 | x12 | x12 | x12 | x12 | x12 | x12 | %114
 x12 | x12 | x6!8va(! x6 | x2!8va)! x10 | x12 | x12 | x12 | x12 | x12 | x12 |[K:bass] x12 | x12 | %126
 x12 | x12 | x12 |[K:treble] x12 | x12 | x12 |!8va(! x12 | x12 | x12 | x12 | x6!8va)! x6 | x12 | %138
 x12 | x12 | x12 | x12 | x12 | x12 | x12 | x12 | x12 | x12 | x12 | x12 | x12 | x12 | x12 | x12 | %154
 x12 | x12 | x12 | x12 | x12 | x12 | x12 | x6!8va(! x6 | x6!8va)! x6 | x12 | x12 | x12 | x12 | %167
 x12 | x12 | x12 | x12 | x12 | x12 | x12 | x12 | x12 | x12 | x12 | x12 | x12 | x12 | x12 | x12 | %183
 x12 | x12 | x12 | x12 | x12 | x12 | x12 | x12 | x12 | x12 | x8 x ^F2 x | x12 | x8 x ^F2 x | x12 | %197
 x8 x ^F2 x | x12 | x8 x =E2 x | x12 | x12 | x12 | x12 | x12 | x3!8va(! x9!8va)! | x12 || %207
[M:2/2] x2!8va(! x6!8va)! | x8 | x8 | x8 | x2!8va(! x6!8va)! | x8 | x8 | x8 | x8 | x8 | x8 | x8 | %219
 x8 | x8 | x8 | x8 | x8 | x8 | x8 | x8 | x8 | x8 | x8 | x8 | x8 |!8va(! x8 | x8 | x8 | x8 | x8 | %237
 x4!8va)! x4 | x8 | x8 | x8 | x8 | x8 | x8 |!8va(! x8 | x66/5!8va)! x14/5 | x16 | x8 | x255/32 | %249
 x8 | x8 | x8 | x23/4!8va(! x47/20 | x!8va)! x7 | x8 | x4!8va(! x4 | x8!8va)! | x8 | x8 | x8 | x8 | %261
 x8 |] %262
V:6
 x8 | x8 | x8 | x8 | x8 | x8 | x8 ||[M:6/4] x12 | x12 | x12 | x12 | x12 | x12 | x12 | x12 | x12 | %16
 x12 | x12 | x12 | x12 | x12 | x2 (.C,,2 .G,2) x2 (.D,,2 .G,2) | x2 (.E,,2 .G,2) x2 (.D,,2 .G,2) | %23
 x12 | x12 | x12 | x12 | x12 | x12 | x12 | x12 | x12 | x12 | x12 | x4 G,2 D,6 | %35
 x2 [G,B,]4 x2 [^F,A,]4 | x2 [G,B,]4 x2 [=F,_A,=B,]4 | x2 [E,G,]4 x2 E,4 | x2 [D,C]4 x6 | %39
 x2 E,4 x2 =F,4 | x2 G,4 x2 F,4 | x2 E,4 x2 C,4 | x12 | G,,2 [G,,,G,,]2 x2 [G,,D,]2 G,,4 | %44
 ([G,,C,E,]6- [G,,C,E,A,]2 [G,,G,]2 [E,E]2) | x12 | x12 | x6[K:treble] x6 | x2 D4 x2 x4 | %49
 x4[K:bass] x8 | x2 D,2 D2 !>![E,^F,A,E]2 D2 D,2 | x12 | x12 | x12 | x12 | x12 | x12 | x12 | x12 | %59
 x12 | x12 | x12 | F,,,12- | F,,,4 x8 | x12 | x12 | x12 | x12 | x12 | x12 | x6[K:treble] x6 | x12 | %72
[K:bass] x12 | x12 | x12 | x12 | x12 | x12 | x6[K:treble] x6 |[K:bass] x6 G,6 | F,6 x2 x4 | x12 | %82
 x12 | x12 | x12 | x12 | x12 | x12 | x12 | x12 | x12 | x12 | x2[K:treble] x10 |[K:bass] x12 | x12 | %95
 x12 | x6 !>!^F,6 | z2 (.=E,,2 .E,,2) z2 (.E,,2 .E,,2) | x12 | x12 | x12 | x12 | x12 | x12 | x12 | %105
 x12 | x12 | x12 | x12 | x8 [^F,D]2 [=B,A]2 | x8 [=E,^C]2 [A,^G]2 | x12 | x2 ^F,4 x2 F,4 | x12 | %114
 x12 | x12 | x12 | x12 | x12 | x12 | x12 | x12 | x12 | x12 | x12 | x12 | x12 | x12 | x12 | x12 | %130
 x12 |[K:treble] x12 | x12 | x12 | x12 | x12 | x12 | %137
[K:bass] x2[K:treble] [EG]4[K:bass] x2[K:treble] (=A,2 B,2) | %138
[K:bass] x2[K:treble] [EG]4[K:bass] x2[K:treble] (=A,2 B,2) | %139
[K:bass] x2[K:treble] [B,E]4[K:bass] x2[K:treble] [_A,C]4 |[K:bass] .B,,2 [F,_A,]4 .B,,2 [F,A,]4 | %141
 x2[K:treble] [EG]4[K:bass] x2[K:treble] (=A,2 B,2) | %142
[K:bass] x2[K:treble] [EG]4[K:bass] x2[K:treble] (=A,2 B,2) | %143
[K:bass] x2[K:treble] [B,E]4[K:bass] x2[K:treble] [_A,C]4 |[K:bass] x12 | x12 | x12 | x12 | x12 | %149
 x12 | x12 | x12 | x12 | x2[K:treble] x10 | x10[K:bass] x2 | x12 | x12 | x12 | x8[K:treble] x4 | %159
 x12 | x12 | x12 |[K:bass] x12 | x12 | x12 | x12 | x12 | x12 | x12 | x12 | x12 | x12 | x12 | x12 | %174
 x12 | x12 | x6[K:treble] x4[K:bass] x2 | x12 | x12 | x12 | x12 | x12 | x12 | x12 | x12 | x12 | %186
 x12 | x12 | x12 | x12 | x6[K:treble] x3[K:bass] x3 | x12 | x12 | x12 | %194
 z2 (.D,,2 .D,,2) z2 (.[D,G,]2 .[D,G,]2) | z2 (.[D,G,]2 .[D,G,]2) z2 (.D,,2 .D,,2) | x12 | x12 | %198
 z2 (.D,,2 .D,,2) z2 (.[D,G,B,]2 .[D,G,B,]2) | z2 (.[D,G,B,]2 .[D,G,B,]2) z2!p! (.D,,2 .D,,2) | %200
 z2 (.D,,2 .D,,2) z2 (.[D,G,B,]2 .[D,G,B,]2) | z2 (.[D,G,B,]2 .[D,G,B,]2) z2 [D,G,B,]2 z2 | %202
 z2 (.[D,G,B,]2 .[D,G,B,]2) z2 [D,G,B,]2 z2 | z2 (.[D,G,B,]2 .[D,G,B,]2) z2 [D,G,B,]2 z2 | %204
 z2 (.[B,^C=E]2 .[B,CE]2) z2 [B,CE]2 z2 | x12 | x12 ||[M:2/2] x8 | x8 | x8 | x8 | x8 | x8 | x8 | %214
 x8 | x2 C,6 | x8 | C,8 | x8 | x4 C,4 | D,4 E,4 | x8 | x4 D,4 | x2 C,6 | x8 | C,4 D,2 E,2 | x8 | %227
 x8 | x8 | x8 | x8 | x8 | x2[K:treble] x6 |[K:bass] x2[K:treble] x2[K:bass] x2[K:treble] x2 | %234
[K:bass] x2[K:treble] x2[K:bass] x2[K:treble] x2 | %235
[K:bass] x2[K:treble] x2[K:bass] x2[K:treble] x2 | %236
[K:bass] x2[K:treble] x2[K:bass] x2[K:treble] x2 |[K:bass] x4[K:treble] x4 | x4[K:bass] x4 | x8 | %240
 x8 | x8 | x8 | x8 | x8 | x16 | x16 | x8 | x255/32 | x8 | x8 | x8 | x5[K:treble] x83/32 | %253
 x4[K:bass] x4 | x8 | x8 | x8 | x8 | x8 | x8 | x8 | x8 |] %262
V:7
 x8 | x8 | x8 | x8 | x8 | x8 | x8 ||[M:6/4] x12 | x12 | x12 | x12 | x12 | x12 | x12 | x12 | x12 | %16
 x12 | x12 | x12 | x12 | x12 | x12 | x12 | x12 | x12 | x12 | x12 | x12 | x12 | x12 | x12 | x12 | %32
 x12 | x12 | x12 | x12 | x12 | x12 | x12 | x12 | x12 | x12 | x12 | x8 (E,D,) x2 | x12 | x12 | x12 | %47
 x6[K:treble] x6 | x12 | x4[K:bass] x8 | x12 | x12 | x12 | x12 | x12 | x12 | x12 | x12 | x12 | %59
 x12 | x12 | x12 | x12 | x12 | x12 | x12 | x12 | x12 | x12 | x12 | x6[K:treble] x6 | x12 | %72
[K:bass] x12 | x12 | x12 | x12 | x12 | x12 | x6[K:treble] x6 |[K:bass] x12 | x12 | x12 | x12 | %83
 x12 | x12 | x12 | x12 | x12 | x12 | x12 | x12 | x12 | x2[K:treble] x10 |[K:bass] x12 | x12 | x12 | %96
 x12 | x12 | x12 | x12 | x12 | x12 | x12 | x12 | x12 | x12 | x12 | x12 | x12 | x12 | x12 | x12 | %112
 x12 | x12 | x12 | x12 | x12 | x12 | x12 | x12 | x12 | x12 | x12 | x12 | x12 | x12 | x12 | x12 | %128
 x12 | x12 | x12 |[K:treble] x12 | x12 | x12 | x12 | x12 | x12 | %137
[K:bass] x2[K:treble] x4[K:bass] x2[K:treble] x4 | %138
[K:bass] x2[K:treble] x4[K:bass] x2[K:treble] x4 | %139
[K:bass] x2[K:treble] x4[K:bass] x2[K:treble] x4 |[K:bass] x12 | %141
 x2[K:treble] x4[K:bass] x2[K:treble] x4 |[K:bass] x2[K:treble] x4[K:bass] x2[K:treble] x4 | %143
[K:bass] x2[K:treble] x4[K:bass] x2[K:treble] x4 |[K:bass] x12 | x12 | x12 | x12 | x12 | x12 | %150
 x12 | x12 | x12 | x2[K:treble] x10 | x10[K:bass] x2 | x12 | x12 | x12 | x8[K:treble] x4 | x12 | %160
 x12 | x12 |[K:bass] x12 | x12 | x12 | x12 | x12 | x12 | x12 | x12 | x12 | x12 | x12 | x12 | x12 | %175
 x12 | x6[K:treble] x4[K:bass] x2 | x12 | x12 | x12 | x12 | x12 | x12 | x12 | x12 | x12 | x12 | %187
 x12 | x12 | x12 | x6[K:treble] x3[K:bass] x3 | x12 | x12 | x12 | x12 | x12 | x12 | x12 | x12 | %199
 x12 | x12 | x12 | x12 | x12 | x12 | x12 | x12 ||[M:2/2] x8 | x8 | x8 | x8 | x8 | x8 | x8 | x8 | %215
 x8 | x8 | x8 | x8 | x8 | x8 | x8 | x8 | x8 | x8 | x8 | x8 | x8 | x8 | x8 | x8 | x8 | %232
 x2[K:treble] x6 |[K:bass] x2[K:treble] x2[K:bass] x2[K:treble] x2 | %234
[K:bass] x2[K:treble] x2[K:bass] x2[K:treble] x2 | %235
[K:bass] x2[K:treble] x2[K:bass] x2[K:treble] x2 | %236
[K:bass] x2[K:treble] x2[K:bass] x2[K:treble] x2 |[K:bass] x4[K:treble] x4 | x4[K:bass] x4 | x8 | %240
 x8 | x8 | x8 | x8 | x8 | x16 | x16 | x8 | x255/32 | x8 | x8 | x8 | x5[K:treble] x83/32 | %253
 x4[K:bass] x4 | x8 | x8 | x8 | x8 | x8 | x8 | x8 | x8 |] %262

